X: 35
T:Prydderch's Hornpipe
M:C
L:1/8
Q:150
S:Robin Huw Bowen
R:Hornpipe
A:Wales
Z:brian_martin12345@yahoo.com
K:G
d2|(3Bcd G>B D>BG>B|A>cF>AD2 (3DEF|G>gf>e e>dc>B|(3ABA (3GFE D2d>c|
(3Bcd G>B D>BG>B|A>cF>AD2(3DEF|G>gf>e (3ded (3cBA|G2B2G2:||
G2|D>DG>G B>B d2|D>DF>F A>Ac2|D>DG>G B>dc>B|A>GF>ED3D|
D>DG>G B>Bd2|D>DF>F A>Ac>B|c>ed>B G>BA>F|G>Bd>fg2:||

